newicons/gofasting.svg

<?xml version="1.0" encoding="UTF-8" standalone="no"?>
<svg
   id="Layer_1"
   data-name="Layer 1"
   version="1.1"
   viewBox="0 0 48 48"
   sodipodi:docname="gofasting.svg"
   inkscape:version="1.3.2 (091e20ef0f, 2023-11-25)"
   xml:space="preserve"
   xmlns:inkscape="http://www.inkscape.org/namespaces/inkscape"
   xmlns:sodipodi="http://sodipodi.sourceforge.net/DTD/sodipodi-0.dtd"
   xmlns="http://www.w3.org/2000/svg"
   xmlns:svg="http://www.w3.org/2000/svg"><sodipodi:namedview
     id="namedview1"
     pagecolor="#242424"
     bordercolor="#000000"
     borderopacity="0.25"
     inkscape:showpageshadow="2"
     inkscape:pageopacity="0.0"
     inkscape:pagecheckerboard="0"
     inkscape:deskcolor="#535353"
     inkscape:zoom="12.59534"
     inkscape:cx="21.039528"
     inkscape:cy="17.903447"
     inkscape:window-width="1918"
     inkscape:window-height="1053"
     inkscape:window-x="0"
     inkscape:window-y="0"
     inkscape:window-maximized="1"
     inkscape:current-layer="Layer_1" /><defs
     id="defs1"><style
       id="style1">
      .cls-1 {
        fill: none;
        stroke: #fff;
        stroke-linecap: round;
        stroke-linejoin: round;
      }
    </style></defs><path
     style="fill:none;stroke:#ffffff;stroke-linecap:round;stroke-linejoin:round;stroke-opacity:1"
     d="M 2.5,24 C 2.5,12.125878 12.125878,2.5 24,2.5 35.874122,2.5 45.5,12.125878 45.5,24 v 0 c 0,8.539006 -5.05328,16.268683 -12.878504,19.672564 -0.271382,-3.531949 -0.580582,-6.435778 -0.580582,-11.55815 V 18.521669 c 0,-1.562365 -0.786737,-2.694523 -2.022547,-1.737421 -3.017609,2.337059 -5.001116,11.478277 -2.49456,14.261566 0.810027,0.899457 1.713389,1.358369 2.365721,2.090609 L 28.886835,44.910777 C 27.288534,45.310752 25.646994,45.5 24,45.5 c -0.864325,0 -1.727864,-0.05212 -2.58479,-0.171026 l -0.764286,-12.8802 c 1.573066,-0.141132 4.11661,-0.60715 3.82397,-4.66475 L 23.735641,17.533902 c -0.111783,-1.549922 -1.743351,-1.369675 -1.681311,0.0118 l 0.419948,9.350696 c 0.04763,1.060475 -1.678819,1.069024 -1.719269,-0.04518 L 20.427148,17.82106 c -0.0313,-0.862002 -0.434481,-1.41201 -0.978287,-1.41201 -0.543807,0 -0.946988,0.550008 -0.978288,1.41201 l -0.327861,9.030158 c -0.04045,1.114204 -1.766899,1.105655 -1.719269,0.04518 l 0.419948,-9.350696 c 0.06204,-1.381475 -1.569528,-1.561722 -1.681311,-0.0118 l -0.739253,10.250122 c -0.29264,4.0576 2.250904,4.523618 3.82397,4.66475 L 17.526472,44.487433 C 8.5790384,41.674812 2.5,33.378435 2.5,24 Z"
     id="path36" /><g
     id="g37"><path
       style="fill:none;stroke:#ffffff;stroke-linecap:round;stroke-linejoin:round;stroke-opacity:1"
       d="M 11.842621,36.221483 A 17.24645,17.24645 0 0 1 6.7535496,23.988813 17.24645,17.24645 0 0 1 24,6.742363 17.24645,17.24645 0 0 1 41.24645,23.988813 v 0 a 17.24645,17.24645 0 0 1 -5.089072,12.23267"
       id="path35" /><g
       id="g36"><path
         style="fill:none;stroke:#ffffff;stroke-linecap:round;stroke-linejoin:round;stroke-opacity:1"
         d="M 8.3500143,24 H 9.5377062"
         id="path34" /><path
         style="fill:none;stroke:#ffffff;stroke-linecap:round;stroke-linejoin:round;stroke-opacity:1"
         d="m 38.462295,24 h 1.187691"
         id="path33" /><path
         style="fill:none;stroke:#ffffff;stroke-linecap:round;stroke-linejoin:round;stroke-opacity:1"
         d="m 12.933789,12.933789 0.839825,0.839825"
         id="path32" /><path
         style="fill:none;stroke:#ffffff;stroke-linecap:round;stroke-linejoin:round;stroke-opacity:1"
         d="m 34.226387,34.226387 0.839824,0.839824"
         id="path31" /><path
         style="fill:none;stroke:#ffffff;stroke-linecap:round;stroke-linejoin:round;stroke-opacity:1"
         d="m 35.066211,12.933789 -0.839825,0.839825"
         id="path30" /><path
         style="fill:none;stroke:#ffffff;stroke-linecap:round;stroke-linejoin:round;stroke-opacity:1"
         d="m 13.773613,34.226387 -0.839824,0.839824"
         id="path29" /><path
         style="fill:none;stroke:#ffffff;stroke-linecap:round;stroke-linejoin:round;stroke-opacity:1"
         d="M 24,8.3500142 V 9.5377061"
         id="path10" /></g></g></svg>

<?xml version="1.0" encoding="UTF-8"?><svg id="a" xmlns="http://www.w3.org/2000/svg" viewBox="0 0 48 48"><defs><style>.m{fill:none;stroke:#fff;stroke-linecap:round;stroke-linejoin:round;}</style></defs><path id="b" class="m" d="M2.5,24C2.5,12.1259,12.1259,2.5,24,2.5s21.5,9.6259,21.5,21.5h0c0,8.539-5.0533,16.2687-12.8785,19.6726-.2714-3.5319-.5806-6.4358-.5806-11.5582v-13.5927c0-1.5624-.7867-2.6945-2.0225-1.7374-3.0176,2.3371-5.0011,11.4783-2.4946,14.2616.81.8995,1.7134,1.3584,2.3657,2.0906l-1.0027,11.7744c-1.5983.4-3.2398.5892-4.8868.5892-.8643,0-1.7279-.0521-2.5848-.171l-.7643-12.8802c1.5731-.1411,4.1166-.6071,3.824-4.6647l-.7393-10.2501c-.1118-1.5499-1.7434-1.3697-1.6813.0118l.4199,9.3507c.0476,1.0605-1.6788,1.069-1.7193-.0452l-.3279-9.0302c-.0313-.862-.4345-1.412-.9783-1.412s-.947.55-.9783,1.412l-.3279,9.0302c-.0404,1.1142-1.7669,1.1057-1.7193.0452l.4199-9.3507c.062-1.3815-1.5695-1.5617-1.6813-.0118l-.7393,10.2501c-.2926,4.0576,2.2509,4.5236,3.824,4.6648l-.7203,12.0387c-8.9474-2.8126-15.0265-11.109-15.0265-20.4874Z"/><g id="c"><path id="d" class="m" d="M11.8426,36.2215c-3.2574-3.2373-5.0891-7.6402-5.0891-12.2327,0-9.525,7.7215-17.2464,17.2465-17.2465,9.525,0,17.2464,7.7215,17.2464,17.2465h0c0,4.5925-1.8317,8.9953-5.0891,12.2327"/><g id="e"><path id="f" class="m" d="M8.35,24h1.1877"/><path id="g" class="m" d="M38.4623,24h1.1877"/><path id="h" class="m" d="M12.9338,12.9338l.8398.8398"/><path id="i" class="m" d="M34.2264,34.2264l.8398.8398"/><path id="j" class="m" d="M35.0662,12.9338l-.8398.8398"/><path id="k" class="m" d="M13.7736,34.2264l-.8398.8398"/><path id="l" class="m" d="M24,8.35v1.1877"/></g></g></svg>
